cssgg/laptop.svg

<svg
  width="24"
  height="24"
  viewBox="0 0 24 24"
  fill="none"
  xmlns="http://www.w3.org/2000/svg"
>
  <path
    fill-rule="evenodd"
    clip-rule="evenodd"
    d="M3 6C3 4.89543 3.89543 4 5 4H19C20.1046 4 21 4.89543 21 6V14C21 15.1046 20.1046 16 19 16H5C3.89543 16 3 15.1046 3 14V6ZM5 6H19V14H5V6Z"
    fill="currentColor"
  />
  <path
    d="M2 18C1.44772 18 1 18.4477 1 19C1 19.5523 1.44772 20 2 20H22C22.5523 20 23 19.5523 23 19C23 18.4477 22.5523 18 22 18H2Z"
    fill="currentColor"
  />
</svg>

<svg viewBox="0 0 24 24" xmlns="http://www.w3.org/2000/svg"><path fill-rule="evenodd" d="M3 6c0-1.11.89-2 2-2h14c1.1 0 2 .89 2 2v8c0 1.1-.9 2-2 2H5c-1.11 0-2-.9-2-2V6Zm2 0h14v8H5V6Z"/><path d="M2 18c-.56 0-1 .44-1 1 0 .55.44 1 1 1h20c.55 0 1-.45 1-1 0-.56-.45-1-1-1H2Z"/></svg>
